X:1
T:Hark the Herald Angels
T:聞けや歌声空に響くを(讃美歌98番・聖歌123番)
T:Composer：Felix Mendelssohn(1809-1847)
T:lyricist：Charles Wesley(1707-1788)
T:Hark! The Herald Angels Sing 
T:Arranger:K Kobayashi
T:©K Kobayashi 2019
C:Felix Mendelssohn()
Z:Charles Wesley
Z:©K Kobayashi 2019
%%score { ( 1 3 5 ) | ( 2 4 ) }
L:1/8
Q:1/4=116
M:4/4
K:F
V:1 treble nm="Piano" snm="Pno."
V:3 treble 
V:5 treble 
V:2 bass 
V:4 bass 
V:1
 A,2 FB,- B,BDC- | C2 AF- F4 | A,2 FB,- B,BDC- | CC F2 GE-Ee |: [A,C]2 F2 [B,DF]3 E | %5
w: |||||
 [A,CF]2 A2 [DFA]2 G2 | [EGc]2 c2 [DFc]3 B | [B,DA]2 [B,DG]2 [CEA]4 | [A,C]2 F2 [B,DF]3 E | %9
w: ||||
 [A,CF]2 A2 [DFA]2 G2 | [EGc]2 G2 [B,DG]3 E | [A,=B,E]2 D2 [E,G,C]4 | [FAc]2 [FAc]2 [FAc]2 [CF]2 | %13
w: ||||
 [DFB]2 [DFA]2 [CFA]2 [CEG]2 | [FAc]2 [FAc]2 [FAc]3 [CF] | [DFB]2 [DFA]2 [CFA]2 [CEG]2 | %16
w: |||
 [FBd]3 [FBd] d2 c2 | [DGB]2 [^D^FA]2 [=DGB]4 | [FG]2 AB [EGc]3 F | [DF]2 G2 [CA]4 | %20
w: ||||
 [FBd]3 [FBd] [FAd]2 [FAc]2 | [DGB]2 [D^FA]2 [DGB]4 | [EG]2 AB [Fc]3 F | %23
w: |||
 [A,CF]2 [B,CEG]2 [B,CDF]4 :|[K:G] D2 G2 E3 G/A/ | D2 G2 E3 B/A/ | D2 F2 E3 G/A/ | %27
w: ||||
 [G,CE]4 !arpeggio![EGc]4 || [G,B,D]2 [A,DG]2 G3 F | [B,EG]2 [EGB]2 B2 A2 | [FGd]2 [EGA]2 A3 F | %31
w: |歌詞３番 * * *|||
 [DF]2 [^CE]2 [F,A,D]4 | d2 d2 d2 G2 | c2 [GB]2 [GB]2 [FA]2 | [Bd]2 [Ad]2 [Ad]2 G2 | %35
w: ||||
 [Ec]2 B2 [DEB]2 [CEA]2 | [EBe]2 [EAe]2 [=Fce]2 [F_Bd]2 | [EAc]2 [E^G=B]2 [Ec]4 | A2 Bc d3 =G | %39
w: ||||
 G2 A2 [FB]4 | e3 e [EAe]2 [FB=d]2 | [EAc]2 [E^GB]2 [EAc]4 | A2 Bc d3 G | [B,DG]2 [CFA]2 [B,DG]4 || %44
w: |||||
 D2 G2 E3 G/A/ | D2 G2 E3 B/A/ | D2 F2 E3 G/A/ | [G,CE]4 !arpeggio!!fermata![B,DG]4 |] %48
w: ||||
V:2
!ped! F,,C, F,2!ped-up!!ped! G,,D, F,2!ped-up! |!ped! A,,C, F,2!ped-up!!ped! B,,D, F,2!ped-up! | %2
!ped! F,,C, F,2!ped-up!!ped! G,,D, F,2!ped-up! |!ped! A,,C, F,2!ped-up!!ped! [C,G,]4!ped-up! |: %4
!ped! F,,C,"^歌詞：１番・２番" F,2!ped-up!!ped! G,,D, F,2!ped-up! | %5
!ped! A,,C, F,2!ped-up!!ped! B,,D, F,2!ped-up! |!ped! [A,,G,]4!ped-up!!ped! [A,,A,]4!ped-up! | %7
!ped! [G,,F,]2 [C,E,]2!ped-up!!ped! [F,,E,]4!ped-up! | %8
!ped! F,,C, F,2!ped-up!!ped! G,,D, F,2!ped-up! |!ped! A,,C, F,2!ped-up!!ped! B,,D, F,2!ped-up! | %10
!ped! [A,,G,]4!ped-up!!ped! [B,,F,]4!ped-up! |!ped! [G,,F,]4!ped-up!!ped! [C,,C,]4!ped-up! | %12
!ped! F,,2 F,2!ped-up!!ped! _E,,2 _E,2!ped-up! |!ped! D,,2 D,2 C,,2 C,2!ped-up! | %14
!ped! F,, F,3 _E,,2 _E,2!ped-up! |!ped! D,, D,3 C,,2 C,2!ped-up! | %16
!ped! B,,F, B,2!ped-up!!ped! B,,F, A,2!ped-up! |!ped! D,G,!ped-up! A,2!ped! D,G, =F,2!ped-up! | %18
!ped! [G,,G,]4!ped-up!!ped! [C,G,]4!ped-up! |!ped! [B,,_A,]4!ped-up!!ped! [C,=A,]4 | %20
!ped! B,,F, B,2!ped-up!!ped! A,,F, A,2!ped-up! |!ped! G,,D, C2!ped-up!!ped! G,,D, B,2!ped-up! | %22
!ped! [C,C]2 [C,B,]2!ped-up!!ped! A,2 F,2!ped-up! | A,,2 C,,2!ped! F,,4!ped-up! :| %24
[K:G]!ped! [G,,D,]4!ped-up!!ped! [G,,E,]4!ped-up! |!ped! [G,,D,]4!ped-up!!ped! [G,,E,]4!ped-up! | %26
!ped! [G,,D,]4!ped-up!!ped! [G,,E,]4!ped-up! | %27
!ped! D,,4!ped-up!!ped! !arpeggio![E,G,B,]4!ped-up! || G,,4 ^D,4 | E,2 D,2 ^C,4 | %30
 B,,2 ^C,2 D,2 F,G, | A,2 A,,2 D,4 | ^C,4 B,,4 | A,,2 G,,2 D,4 | C,4 B,,4 | E,,4 A,,4 | C,4 D,4 | %37
 E,4 A,4 | C,4 B,,4 | C,2 F,,2 B,,4 | D,4 C,2 D,2 | E,2 E,,2 A,,4 | C,4 B,,2 C,2 | D,2 D,,2 G,,4 || %44
!ped! [G,,D,]4!ped-up!!ped! [G,,E,]4!ped-up! |!ped! [G,,D,]4!ped-up!!ped! [G,,E,]4!ped-up! | %46
!ped! [G,,D,]4!ped-up!!ped! [G,,E,]4!ped-up! | %47
!ped! D,,4!ped-up!!ped! !arpeggio!!fermata![G,,D,G,]4!ped-up! |] %48
V:3
 x8 | x3 C/D/- DC B,2 | x8 | x2 z A,/B,/- B,2 z2 |: x8 | x8 | x8 | x8 | x8 | x8 | x8 | x8 | x8 | %13
 x8 | x8 | x8 | x4 [FB]2 [FA]2 | x8 | _D2 E2 x4 | x4 E2 _E2 | x8 | x8 | x2 E2 x2 C2 | x8 :| %24
[K:G] [A,B,]4 [B,C]4 | [A,B,]4 [B,C]4 | [A,B,]4 [G,B,]4 | x8 || x4 [F,B,]4 | x4 [EG]4 | %30
 x4 [DF]2 [A,D]2 | x2 A,G, x4 | [DF]4 [DG]4 | EF D2 D4 | F4 D4 | D4 A4 | x8 | x4 B2 A2 | %38
 [_E^F]4 D4 | [CE]4 E2 ^D2 | [^GB]4 x4 | x8 | [DF]4 [D=G]2 E2 | x8 || [A,B,]4 [B,C]4 | %45
 [A,B,]4 [B,C]4 | [A,B,]4 [G,B,]4 | x8 |] %48
V:4
 x8 | x8 | x8 | x8 |: x8 | x8 | x8 | x8 | x8 | x8 | x8 | x8 | x8 | x8 | x8 | x8 | x8 | x8 | x8 | %19
 x8 | x8 | x8 | x4 C,3 B,, | x8 :|[K:G] x8 | x8 | x8 | x8 || x8 | x8 | x8 | x8 | x8 | x8 | x8 | %35
 x8 | x8 | x8 | x8 | x8 | x8 | x8 | x8 | x8 || x8 | x8 | x8 | x8 |] %48
V:5
 x8 | x8 | x8 | x8 |: x8 | x8 | x8 | x8 | x8 | x8 | x8 | x8 | x8 | x8 | x8 | x8 | x8 | x8 | x8 | %19
 x8 | x8 | x8 | x8 | x8 :|[K:G] x8 | x8 | x8 | x8 || x8 | x8 | x8 | x8 | x8 | x8 | x8 | x2 F^G x4 | %36
 x8 | x8 | x4 =G2 F2 | x8 | x8 | x8 | x8 | x8 || x8 | x8 | x8 | x8 |] %48

